X: 18
T: Si j'ay parl\'e aucunement
N: Derived from Com3038-Si_jay_parle_aucunement.krn
C: Loyset Comp\`ere
%%abc-version 2.0
%%abcx-abcm2ps-target-version 5.9.1 (29 Sep 2008)
%%abc-creator hum2abc beta
%%abcx-conversion-date 2019/02/16 20:28:09
%%abc-edited-by Jesse Rodin
%%abc-edited-by Megan K. Eagen 2013/11/30
%%abcx-initial-encoding-date 2013/11/30/
%%humdrum-veritas 2259872664
%%humdrum-veritas-data 964024146
%%linebreak <none>
%%barnumbers 0
L: 1/4
M: 2/1
Q: 1/2=120
V: 1 clef=treble
V: 2 clef=treble-8
V: 3 clef=bass
K: F
[V:1] z8 | 
[V:2] z8 | 
[V:3] G,4G,2G,2 | 
[V:1] z8 | 
[V:2] G4G2G2 | 
[V:3] B,4B,A,G,F, | 
[V:1] G4G2G2 | 
[V:2] B6A2 | 
[V:3] _E,8 | 
[V:1] B6A2 | 
[V:2] G4F4 | 
[V:3] _E,4z2D,2 | 
[V:1] G4F4 | 
[V:2] GABcd4 | 
[V:3] _E,4D,2B,,2- | 
[V:1] DEFGA2B2 | 
[V:2] z2d2c2B2 | 
[V:3] B,,C,D,E,F,2G,2 | 
[V:1] c2B4A2 | 
[V:2] A2B2c4 | 
[V:3] F,2G,2F,4 | 
[V:1] B4z2B2 | 
[V:2] B4z2d2 | 
[V:3] B,,2G,,2z2G,2 | 
[V:1] B2B2A2G2 | 
[V:2] d2d2c2B2 | 
[V:3] G,2G,2A,F,G,2 | 
[V:1] F2G4^F2 | 
[V:2] A2G2A4 | 
[V:3] D,2E,2D,4 | 
[V:1] G4z2D2 | 
[V:2] G4z4 | 
[V:3] G,,4G,4 | 
[V:1] E4F4 | 
[V:2] z2G2A4 | 
[V:3] C,4z2D,2 | 
[V:1] G4A4 | 
[V:2] B4c4 | 
[V:3] G,4F,2A,2 | 
[V:1] B2A4G2 | 
[V:2] d2A2B4 | 
[V:3] G,2F,2G,2E,2 | 
[V:1] A4z2A2 | 
[V:2] A4d4 | 
[V:3] F,4D,4 | 
[V:1] B4A4 | 
[V:2] z2G2d4 | 
[V:3] G,4z2D,2 | 
[V:1] z2A2B4 | 
[V:2] c4z2G2 | 
[V:3] F,4G,4 | 
[V:1] A4z2A2 | 
[V:2] d4c4 | 
[V:3] z2D,2F,4 | 
[V:1] B4c4 | 
[V:2] d4z2A2 | 
[V:3] B,,4F,4 | 
[V:1] B4A2B2- | 
[V:2] B4c2d2- | 
[V:3] G,4F,2B,,2- | 
[V:1] B2A2G2A2- | 
[V:2] d2c2B2c2- | 
[V:3] B,,2F,2G,2F,2- | 
[V:1] A2G4^F2 | 
[V:2] c2B2A4 | 
[V:3] F,2G,2D,4 | 
[V:1] G8 |]  
[V:2] G8 |]  
[V:3] G,,8 |]  



